X: 37307
T: Skye Air
R: waltz
M: 3/4
K: Fmajor
CD|:F3 G FG|F2 G2 A2|f2 d2 cd|F3 F GA|
f2 d2 cf|d4 GA|F2 D2 F2|G4 cA|1 G4 CD:|2 G4 df||
|:g2 g2 ga|g2 g2 ga|g2 fd fa|f2 d2 fg|
a4 gf|d4 fd|c2 AG FG|A3 F GA|
f2 d2 cf|d4 GA|F2 D2 F2|G4 cA|1 G4 df:|2 G6||

